X: 5978
T: Camptown Wraiths
R: reel
M: 4/4
K: Dminor
|:"Dm"DEFD EFDE|FDEF DEFD|"A"EFGE FGEF|GEFG EFGE|
"Dm"FGAF GAFG|AFGA FGAF|"Gm"d^cBA "A"GFED|^CDEF "Dm"D4:|
|:"Dm"fedf "A"ed^ce|"Dm"d2 AA F2 A2|fedf "A"ed^cd|e2 a2a4|
"Dm"fedf ed^ce|d2AAF2A2|"Gm"d^cBA "A"GFED|^CDEF "Dm"D4:|

